X: 39378
T: Tanglewood
R: reel
M: 4/4
K: Aminor
|:E2 DE A,3 C|B,G, (3G,G,G, EDB,D|E2 DE A,G,A,D|EDEG AA,CD|
E2 DE A,3 C|B,G, (3G,G,G, EDB,D|E2 DE A,G,A,D|EDEG AA,CA,:|
|:eged eA (3AAA|edeg aA (3AAA|eged eAAc|BGBd edBd|
eged eA (3AAA|edeg aA (3AAA|eged eAAc|BGBd edBd:|

